X:1
T:Cnoc na gClarac
M:12/8
L:1/8
S:Erik Fossum
R:slide
Z:id:hn-slide-15
K:Amix
a2g|:e2e efe d2d e2d|c2A B2A a3 a2g|
e2e efe d2d e2d|1 c2A B2c A3 a2g:|2 c2A B2c A3 A2d||
|:e2a a2g e2d c2d|e2a a2g efe d2f|
e2a aba g2g gfe|1 d2d def g2a f2g:|2 d2d def g3||
